X: 10961
M: C|
L: 1/16
K: Em
uB,2 |\
E6F2 EEE2 (E2F2) | (.A3.B)(A3F) (.D3.E)(F3D) | B,E3(E3D) (E3F)Ge3 | dB3(A2F2) B4E2 :|
e6f2 eee2 (e3d) | (.B3.d)(A3F) (.D3.E)(F3D) | E(e3"^>"e3f) eee2 (e3d) | Bd3 (F3A) B4 E2B2 |
e6f2 eee2 (e3d) | B3d A3d (.D3.E)(F3D) | B,E3(E3F) (E3F)Ge3 | dB3 (A2F2) "_Segue Reel."B4E2 "^D.C.":|


